X: 1
T: Ol' Man River
C: Jerome Kern &Oscar Hammerstein
O: Show Boat 1927
M: C
L: 1/8
K: Eb
[|\
"Eb"B,2B,2 "Cm7"CE2C | "Eb"B,2B,2 "Ab"CE2F | "Eb"G2G2 "Ab"FE2F | "Eb"G2B2 "Cm7"cB2c |\
"Fm7"B2B2 "Bb9"GF2G | "Fm7"B2B2 "Bb9"GF2G | "Eb"E4- "Ab"E4- | "Eb"E6 zB, |
"Eb"B,2B,2 "Cm7"CE2C | "Eb"B,2B,2 "Ab"CE2F | "Eb"G2B2 "Cm7"cB2c | "Eb"e2e2 "Gbdim7"dc2d |\
"Fm7"B2B2 "Bb9"GF2G | "Fm7"B2B2 "Bb9"GF2G | "Eb"E4- "Ab"E4- | "Eb"E2z2 "Am7b5 D7"z4 |]
[|\
"Gm"d2B2 "D7b9"c3e | "Gm"d2B2 "D7b9"c4 | "Gm"d>dB2 "D7b9"c>ce2 | "Gm"d2B2 "D7b9"c4 |\
"Gm"B2G2 "Cm6"=A4 | "Gm"B2G2 "D7b9"=A4 | "Gm"B>BG>G "D7b9"=A2c>c | "Gm"B2G2 "Fm7"F2-"Bb7"F2 |]
"Eb"B,2B,2 "Cm7"CE2C | "Eb"B,2B,2 "Ab"CE2F | "Eb"G2B2 "Cm7"cB2c | "Eb"e2e2 "F7"fe2f |\
"Eb/Bb"g2g2 "Cm7"fe2f | "Fm7"g2g2 "Bb7"fef2 | "Eb"e8- | e2z2 "(Fm7 Bb7)"z4 |]
